assets/images/polygon-(matic).svg

<svg width="24" height="24" viewBox="0 0 24 24" fill="none" xmlns="http://www.w3.org/2000/svg">
<path d="M12 12.1L7.5 14.7L3 12.1V6.90005L7.5 4.30005L12 6.90005V8.50005" stroke="#1BB1B7" stroke-width="1.5" stroke-miterlimit="10" stroke-linecap="round" stroke-linejoin="round"/>
<path d="M12 12.1L16.5 9.5L21 12.1V17.3L16.5 19.9L12 17.3V15.6" stroke="#1BB1B7" stroke-width="1.5" stroke-miterlimit="10" stroke-linecap="round" stroke-linejoin="round"/>
</svg>

<svg xmlns="http://www.w3.org/2000/svg" width="24" height="24" fill="none" viewBox="0 0 24 24"><path stroke="#1bb1b7" stroke-linecap="round" stroke-linejoin="round" stroke-miterlimit="10" stroke-width="1.5" d="m12 12.1-4.5 2.6L3 12.1V6.9l4.5-2.6L12 6.9v1.6m0 3.6 4.5-2.6 4.5 2.6v5.2l-4.5 2.6-4.5-2.6v-1.7"/></svg>
